icons/breezeLight/actions/22/crosshatch-path.svg

<svg viewBox="0 0 22 22" xmlns="http://www.w3.org/2000/svg"><path d="m6 6v4h1 1 1v2h-1-1-1v4h4v-1-1-1h2v1 1 1h4v-1-2-1h-1-1-1v-2h1 1 1v-1-.05078c-.164538.03368-.332051.05069-.5.05078-.168081-.0014-.335596-.0197-.5-.05469v.05469h-2v-2h.05469c-.034995-.1644044-.053316-.3319187-.05469-.5.000089-.1679493.0171-.3354622.05078-.5h-.05078-1v1 1 1h-2v-1-1-1h-1-2zm1 1h2v2h-2zm3 3h2v2h-2zm-3 3h2v2h-2zm6 0h2v2h-2z" fill="#da4453"/><path d="m3 3v16h16v-16zm1 1h14v14h-14z" fill="#4d4d4d"/><path d="m15.5 4a2.5 2.5 0 0 0 -2.5 2.5 2.5 2.5 0 0 0 2.5 2.5 2.5 2.5 0 0 0 2.5-2.5 2.5 2.5 0 0 0 -2.5-2.5zm0 1a1.5 1.5 0 0 1 1.5 1.5 1.5 1.5 0 0 1 -1.5 1.5 1.5 1.5 0 0 1 -1.5-1.5 1.5 1.5 0 0 1 1.5-1.5z" fill="#3daee9"/></svg>

<?xml version="1.0" encoding="UTF-8" standalone="no"?>
<svg
   xmlns:dc="http://purl.org/dc/elements/1.1/"
   xmlns:cc="http://creativecommons.org/ns#"
   xmlns:rdf="http://www.w3.org/1999/02/22-rdf-syntax-ns#"
   xmlns:svg="http://www.w3.org/2000/svg"
   xmlns="http://www.w3.org/2000/svg"
   xmlns:sodipodi="http://sodipodi.sourceforge.net/DTD/sodipodi-0.dtd"
   xmlns:inkscape="http://www.inkscape.org/namespaces/inkscape"
   viewBox="0 0 22 22"
   version="1.1"
   id="svg10"
   sodipodi:docname="crosshatch-path.svg"
   inkscape:version="1.0.2 (e86c870879, 2021-01-15, custom)">
  <path
     id="path828"
     style="color:#000000;font-style:normal;font-variant:normal;font-weight:normal;font-stretch:normal;font-size:medium;line-height:normal;font-family:sans-serif;font-variant-ligatures:normal;font-variant-position:normal;font-variant-caps:normal;font-variant-numeric:normal;font-variant-alternates:normal;font-feature-settings:normal;text-indent:0;text-align:start;text-decoration:none;text-decoration-line:none;text-decoration-style:solid;text-decoration-color:#000000;letter-spacing:normal;word-spacing:normal;text-transform:none;writing-mode:lr-tb;direction:ltr;text-orientation:mixed;dominant-baseline:auto;baseline-shift:baseline;text-anchor:start;white-space:normal;shape-padding:0;clip-rule:nonzero;display:inline;overflow:visible;visibility:visible;isolation:auto;mix-blend-mode:normal;color-interpolation:sRGB;color-interpolation-filters:linearRGB;solid-color:#000000;solid-opacity:1;vector-effect:none;fill:#da4453;fill-opacity:1;fill-rule:nonzero;stroke:none;stroke-width:1px;stroke-linecap:butt;stroke-linejoin:miter;stroke-miterlimit:4;stroke-dasharray:none;stroke-dashoffset:0;stroke-opacity:1;color-rendering:auto;image-rendering:auto;shape-rendering:auto;text-rendering:auto;enable-background:accumulate"
     d="m 6,6 v 4 h 1 1 1 v 2 H 8 7 6 v 4 h 4 v -1 -1 -1 h 2 v 1 1 1 h 4 v -1 -2 -1 h -1 -1 -1 v -2 h 1 1 1 V 9 8.94922 C 15.835462,8.9829 15.667949,8.99991 15.5,9 15.331919,8.9986 15.164404,8.9803 15,8.94531 V 9 H 13 V 7 h 0.05469 C 13.019695,6.8355956 13.001374,6.6680813 13,6.5 13.000089,6.3320507 13.0171,6.1645378 13.05078,6 H 13 12 V 7 8 9 H 10 V 8 7 6 H 9 7 Z M 7,7 H 9 V 9 H 7 Z m 3,3 h 2 v 2 h -2 z m -3,3 h 2 v 2 H 7 Z m 6,0 h 2 v 2 h -2 z" />
  <metadata
     id="metadata14">
    <rdf:RDF>
      <cc:Work
         rdf:about="">
        <dc:format>image/svg+xml</dc:format>
        <dc:type
           rdf:resource="http://purl.org/dc/dcmitype/StillImage" />
        <dc:title></dc:title>
      </cc:Work>
    </rdf:RDF>
  </metadata>
  <sodipodi:namedview
     pagecolor="#ffffff"
     bordercolor="#666666"
     borderopacity="1"
     objecttolerance="10"
     gridtolerance="10"
     guidetolerance="10"
     inkscape:pageopacity="0"
     inkscape:pageshadow="2"
     inkscape:window-width="2341"
     inkscape:window-height="1048"
     id="namedview12"
     showgrid="true"
     inkscape:zoom="42.909091"
     inkscape:cx="12.883075"
     inkscape:cy="10.574647"
     inkscape:window-x="1399"
     inkscape:window-y="1080"
     inkscape:window-maximized="0"
     inkscape:current-layer="svg10"
     inkscape:document-rotation="0">
    <inkscape:grid
       type="xygrid"
       id="grid821"
       empspacing="2"
       spacingx="0.5"
       spacingy="0.5" />
  </sodipodi:namedview>
  <defs
     id="defs3051">
    <style
       type="text/css"
       id="current-color-scheme">
      .ColorScheme-Text {
        color:#4d4d4d;
      }
      .ColorScheme-Highlight {
        color:#3daee9;
      }
      </style>
  </defs>
  <path
     style="fill:#4d4d4d;fill-opacity:1;stroke:none;stroke-opacity:1"
     d="M 3 3 L 3 19 L 19 19 L 19 3 L 3 3 z M 4 4 L 18 4 L 18 18 L 4 18 L 4 4 z "
     id="rect823" />
  <path
     style="fill:#3daee9;fill-opacity:1;stroke:none;stroke-opacity:1"
     d="M 15.5 4 A 2.5 2.5 0 0 0 13 6.5 A 2.5 2.5 0 0 0 15.5 9 A 2.5 2.5 0 0 0 18 6.5 A 2.5 2.5 0 0 0 15.5 4 z M 15.5 5 A 1.5 1.5 0 0 1 17 6.5 A 1.5 1.5 0 0 1 15.5 8 A 1.5 1.5 0 0 1 14 6.5 A 1.5 1.5 0 0 1 15.5 5 z "
     id="path834" />
</svg>
